exports/income-shares-by-quintile_v3_850x600.svg

<svg xmlns="http://www.w3.org/2000/svg" version="1.1" style="background-color:#fff;-webkit-font-smoothing:antialiased" width="850" height="600" font-family="'Helvetica Neue',Helvetica,Arial,sans-serif" font-size="18" text-rendering="optimizeLegibility"><g class="ChartTab"><g class="HeaderView"><g opacity=".8" transform="matrix(.27 0 0 .27 778 15)"><a xmlns:xlink="http://www.w3.org/1999/xlink" xlink:href="https://ourworldindata.org" target="_blank"><g><path fill="#1B2543" d="M0 0h211.2v130.1H0z"/><path fill="#E63912" d="M0 112.2h211.2v17.9H0z"/><g><path fill="none" d="M1.2 12.3h210.2v99.2H1.2z"/><path fill="#FFF" d="M37.8 32.2c0 12.7-7.7 19.4-17.1 19.4-9.7 0-16.6-7.5-16.6-18.7 0-11.7 7.3-19.3 17.1-19.3 10.1.1 16.6 7.7 16.6 18.6zm-28.6.6c0 7.9 4.3 14.9 11.8 14.9 7.5 0 11.8-6.9 11.8-15.3 0-7.3-3.8-14.9-11.8-14.9-7.9 0-11.8 7.3-11.8 15.3zM62.7 43.8c0 2.7.1 5.1.2 7.2h-4.3l-.3-4.3h-.1c-1.3 2.1-4 4.9-8.8 4.9-4.2 0-9.1-2.3-9.1-11.6V24.6h4.8v14.6c0 5 1.5 8.4 5.9 8.4 3.2 0 5.5-2.2 6.3-4.4.3-.7.4-1.6.4-2.5V24.6h4.8v19.2zM67.3 32.8c0-3.1-.1-5.8-.2-8.2h4.2l.2 5.2h.2c1.2-3.5 4.1-5.8 7.3-5.8.5 0 .9.1 1.4.2v4.5c-.5-.1-1-.2-1.6-.2-3.4 0-5.8 2.6-6.5 6.2-.1.7-.2 1.4-.2 2.2V51h-4.8V32.8zM95.4 51L86 14.2h5l4.4 18.6c1.1 4.6 2.1 9.2 2.7 12.7h.1c.6-3.7 1.8-8 3-12.8l4.9-18.5h5l4.5 18.7c1 4.4 2 8.7 2.6 12.6h.1c.8-4 1.8-8.1 3-12.7l4.9-18.5h4.9L120.6 51h-5L111 31.9c-1.1-4.7-1.9-8.3-2.4-12h-.1c-.7 3.7-1.5 7.3-2.8 12L100.4 51h-5zM154.9 37.6c0 9.8-6.8 14-13.2 14-7.2 0-12.7-5.2-12.7-13.6 0-8.8 5.8-14 13.1-14 7.7 0 12.8 5.5 12.8 13.6zm-21 .3c0 5.8 3.3 10.1 8 10.1 4.6 0 8-4.3 8-10.3 0-4.5-2.2-10.1-7.9-10.1s-8.1 5.2-8.1 10.3zM158.2 32.8c0-3.1-.1-5.8-.2-8.2h4.2l.2 5.2h.2c1.2-3.5 4.1-5.8 7.3-5.8.5 0 .9.1 1.4.2v4.5c-.5-.1-1-.2-1.6-.2-3.4 0-5.8 2.6-6.5 6.2-.1.7-.2 1.4-.2 2.2V51h-4.8V32.8zM173.5 12.3h4.8V51h-4.8V12.3zM206.5 12.3v31.9c0 2.3.1 5 .2 6.8h-4.3l-.2-4.6h-.2c-1.5 2.9-4.7 5.2-9 5.2-6.4 0-11.3-5.4-11.3-13.4-.1-8.8 5.4-14.2 11.9-14.2 4 0 6.8 1.9 8 4h.1V12.3h4.8zm-4.8 23.1c0-.6-.1-1.4-.2-2a7 7 0 00-6.9-5.6c-5 0-7.9 4.4-7.9 10.2 0 5.3 2.6 9.8 7.8 9.8 3.2 0 6.2-2.1 7.1-5.7.2-.7.2-1.3.2-2.1v-4.6zM42.8 64c.1 1.6-1.1 2.9-3.1 2.9-1.7 0-2.9-1.3-2.9-2.9 0-1.7 1.3-3 3-3 1.9 0 3 1.3 3 3zm-5.4 33.8V71.4h4.8v26.4h-4.8zM47.5 78.6c0-2.7-.1-5-.2-7.1h4.3l.3 4.4h.1c1.3-2.5 4.4-5 8.8-5 3.7 0 9.4 2.2 9.4 11.2v15.8h-4.8V82.6c0-4.3-1.6-7.8-6.1-7.8-3.2 0-5.6 2.2-6.5 4.9-.2.6-.3 1.4-.3 2.2v15.9h-4.8V78.6zM84 61.6c2.9-.4 6.3-.8 10.1-.8 6.8 0 11.7 1.6 14.9 4.6 3.3 3 5.2 7.3 5.2 13.2 0 6-1.9 10.9-5.3 14.3-3.4 3.4-9.1 5.3-16.3 5.3-3.4 0-6.2-.2-8.6-.4V61.6zm4.8 32.5c1.2.2 3 .3 4.8.3 10.2 0 15.7-5.7 15.7-15.6.1-8.7-4.9-14.2-14.9-14.2-2.5 0-4.3.2-5.6.5v29zM132.1 97.8l-.4-3.3h-.2a9.79 9.79 0 01-8.1 3.9c-5.4 0-8.1-3.8-8.1-7.6 0-6.4 5.7-9.9 15.9-9.8v-.5c0-2.2-.6-6.1-6-6.1-2.5 0-5 .8-6.9 2l-1.1-3.2c2.2-1.4 5.4-2.3 8.7-2.3 8.1 0 10.1 5.5 10.1 10.8v9.9c0 2.3.1 4.5.4 6.3h-4.3zm-.7-13.4c-5.3-.1-11.2.8-11.2 5.9 0 3.1 2.1 4.6 4.5 4.6 3.4 0 5.6-2.2 6.4-4.4.2-.5.3-1 .3-1.5v-4.6zM146.6 63.9v7.6h6.9v3.7h-6.9v14.2c0 3.3.9 5.1 3.6 5.1 1.3 0 2.2-.2 2.8-.3l.2 3.6c-.9.4-2.4.7-4.3.7-2.2 0-4-.7-5.2-2-1.4-1.4-1.9-3.8-1.9-6.9V75.1h-4.1v-3.7h4.1v-6.3l4.8-1.2zM171.4 97.8l-.4-3.3h-.2a9.79 9.79 0 01-8.1 3.9c-5.4 0-8.1-3.8-8.1-7.6 0-6.4 5.7-9.9 15.9-9.8v-.5c0-2.2-.6-6.1-6-6.1-2.5 0-5 .8-6.9 2l-1.1-3.2c2.2-1.4 5.4-2.3 8.7-2.3 8.1 0 10.1 5.5 10.1 10.8v9.9c0 2.3.1 4.5.4 6.3h-4.3zm-.7-13.4c-5.3-.1-11.2.8-11.2 5.9 0 3.1 2.1 4.6 4.5 4.6 3.4 0 5.6-2.2 6.4-4.4.2-.5.3-1 .3-1.5v-4.6z"/></g></g></a></g><a href="https://ourworldindata.org/grapher/income-shares-by-quintile" target="_blank"><text font-size="25.2" x="15" y="35.2" fill="#555"><tspan x="15" y="35.16">Income shares by quintile, United States</tspan></text></a><text font-size="14.4" x="15" y="53.7" fill="#666"><tspan x="15" y="53.72">Percentage share of income or consumption is the share that accrues to subgroups of population by quintiles. For</tspan><tspan x="15" y="69.56">example, in a country with 100 people, if you rank them by income the share of the lowest quintile corresponds to the</tspan><tspan x="15" y="85.4">sum of incomes of the bottom 20 people, as a proportion of total income in that country.</tspan></text></g><g class="StackedArea"><defs><clipPath id="a"><path d="M61.63 0h820v897.8h-820z"/></clipPath></defs><g class="AxisBoxView"><g class="HorizontalAxis" fill="#666" text-anchor="middle" font-size="16.2"><text x="61.6" y="556.5">1979</text><text x="172.3" y="556.5">1985</text><text x="264.4" y="556.5">1990</text><text x="356.6" y="556.5">1995</text><text x="448.8" y="556.5">2000</text><text x="541" y="556.5">2005</text><text x="633.2" y="556.5">2010</text><text x="688.5" y="556.5">2013</text></g><g class="VerticalAxis" fill="#666" dominant-baseline="middle" text-anchor="end" font-size="16.2"><text x="56.63" y="535.3">0%</text><text x="56.63" y="449.8">20%</text><text x="56.63" y="364.2">40%</text><text x="56.63" y="278.7">60%</text><text x="56.63" y="193.1">80%</text><text x="56.63" y="107.6">100%</text></g><g class="AxisGridLines"><path stroke="#ccc" d="M61.63 535.3h626.86"/><path stroke="#ddd" stroke-dasharray="3,2" d="M61.63 449.8h626.86M61.63 364.2h626.86M61.63 278.7h626.86M61.63 193.1h626.86M61.63 107.6h626.86"/></g></g><g clip-path="url(#a)"><g class="HeightedLegend clickable"><g class="legendMark"><text font-size="13.5" x="693.5" y="203.7" fill="#34983f"><tspan x="693.49" y="203.65">Income share held</tspan><tspan x="693.49" y="218.5">by highest 20%</tspan></text></g><g class="legendMark"><text font-size="13.5" x="693.5" y="351.6" fill="#9ecc8a"><tspan x="693.49" y="351.55">Income share held</tspan><tspan x="693.49" y="366.4">by fourth 20%</tspan></text></g><g class="legendMark"><text font-size="13.5" x="693.5" y="433.1" fill="#ffd53e"><tspan x="693.49" y="433.15">Income share held</tspan><tspan x="693.49" y="448">by third 20%</tspan></text></g><g class="legendMark"><text font-size="13.5" x="693.5" y="488.1" fill="#ca2628"><tspan x="693.49" y="488.15">Income share held</tspan><tspan x="693.49" y="503">by second 20%</tspan></text></g><g class="legendMark"><text font-size="13.5" x="693.5" y="521.1" fill="#3360a9"><tspan x="693.49" y="521.15">Income share held</tspan><tspan x="693.49" y="536">by lowest 20%</tspan></text></g></g><g class="Areas"><path d="M61.6 507.9l129.1 3.9h92.2l55.3.8h55.3l55.3-.4 73.8.9 55.3.4h110.6l-.01 21.8H61.63" fill="#3360a9" fill-opacity=".7" class="United-States_0-area"/><path d="M61.6 456.2l129.1 7.7 92.2.8 55.3 2.6 55.3.4 55.3-.9 73.8.9 55.3.9h55.3l55.3.8v44.1H577.9l-55.3-.4-73.8-.9-55.3.4h-55.3l-55.3-.8h-92.2l-129.1-3.9" fill="#ca2628" fill-opacity=".7" class="United-States_1-area"/><path d="M61.6 383.9l129.1 9.4 92.2 1.7 55.3 5.1 55.3 1.3 55.3-1.4 73.8.6 55.3 1.8 55.3-1 55.3 2v66l-55.3-.8h-55.3l-55.3-.9-73.8-.9-55.3.9-55.3-.4-55.3-2.6-92.2-.8-129.1-7.7" fill="#ffd53e" fill-opacity=".7" class="United-States_2-area"/><path d="M61.6 283.8l129.1 8.6 92.2 3 55.3 7.7 55.3 2.5 55.3-1.1 73.8-.2 55.3 2 55.3-2.8 55.3 2.8v97.1l-55.3-2-55.3 1-55.3-1.8-73.8-.6-55.3 1.4-55.3-1.3-55.3-5.1-92.2-1.7-129.1-9.4" fill="#9ecc8a" fill-opacity=".7" class="United-States_3-area"/><path d="M61.6 107.6h626.9v198.7l-55.3-2.8-55.3 2.8-55.3-2-73.8.2-55.3 1.1-55.3-2.5-55.3-7.7-92.2-3-129.1-8.6" fill="#34983f" fill-opacity=".7" class="United-States_4-area"/><path stroke-linecap="round" d="M61.6 507.9l129.1 3.9h92.2l55.3.8h55.3l55.3-.4 73.8.9 55.3.4h110.6" stroke="#2B508D" stroke-opacity=".7" stroke-width=".5" fill="none" class="United-States_0-border"/><path stroke-linecap="round" d="M61.6 456.2l129.1 7.7 92.2.8 55.3 2.6 55.3.4 55.3-.9 73.8.9 55.3.9h55.3l55.3.8" stroke="#A92021" stroke-opacity=".7" stroke-width=".5" fill="none" class="United-States_1-border"/><path stroke-linecap="round" d="M61.6 383.9l129.1 9.4 92.2 1.7 55.3 5.1 55.3 1.3 55.3-1.4 73.8.6 55.3 1.8 55.3-1 55.3 2" stroke="#D5B234" stroke-opacity=".7" stroke-width=".5" fill="none" class="United-States_2-border"/><path stroke-linecap="round" d="M61.6 283.8l129.1 8.6 92.2 3 55.3 7.7 55.3 2.5 55.3-1.1 73.8-.2 55.3 2 55.3-2.8 55.3 2.8" stroke="#84AB73" stroke-opacity=".7" stroke-width=".5" fill="none" class="United-States_3-border"/><path stroke-linecap="round" d="M61.6 107.6h626.9" stroke="#2C7F35" stroke-opacity=".7" stroke-width=".5" fill="none" class="United-States_4-border"/></g></g></g><g class="SourcesFooter" fill="#777"><g class="clickable" fill="#777"><text font-size="12.6" x="15" y="581.6"><tspan x="15" y="581.58">Source: World Bank Poverty and Equity database</tspan></text></g><text font-size="12.6" x="543.7" y="581.6"><tspan x="543.69" y="581.58"><a target="_blank" href="https://ourworldindata.org/income-inequality/" fill="#777">OurWorldInData.org/income-inequality/</a> • <a class="cclogo" href="http://creativecommons.org/licenses/by-sa/4.0/deed.en_US" target="_blank" fill="#777">CC BY-SA</a></tspan></text></g></g></svg>

<svg xmlns="http://www.w3.org/2000/svg" version="1.1" style="font-family: 'Helvetica Neue', Helvetica, Arial, sans-serif; font-size: 18px; background-color: white; text-rendering: optimizeLegibility; -webkit-font-smoothing: antialiased;" width="850" height="600"><g class="ChartTab"><g class="HeaderView"><g opacity="0.8" transform="translate(778, 15) scale(0.27)"><a xmlns:xlink="http://www.w3.org/1999/xlink" xlink:href="https://ourworldindata.org" target="_blank"><g><rect x="0" y="0" fill="#1B2543" width="211.2" height="130.1"/><rect x="0" y="112.2" fill="#E63912" width="211.2" height="17.9"/><g><rect x="1.2" y="12.3" fill="none" width="210.2" height="99.2"/><path fill="#FFFFFF" d="M37.8,32.2c0,12.7-7.7,19.4-17.1,19.4c-9.7,0-16.6-7.5-16.6-18.7c0-11.7,7.3-19.3,17.1-19.3 C31.3,13.7,37.8,21.3,37.8,32.2z M9.2,32.8c0,7.9,4.3,14.9,11.8,14.9c7.5,0,11.8-6.9,11.8-15.3c0-7.3-3.8-14.9-11.8-14.9 C13.1,17.5,9.2,24.8,9.2,32.8z"/><path fill="#FFFFFF" d="M62.7,43.8c0,2.7,0.1,5.1,0.2,7.2h-4.3l-0.3-4.3h-0.1c-1.3,2.1-4,4.9-8.8,4.9c-4.2,0-9.1-2.3-9.1-11.6 V24.6h4.8v14.6c0,5,1.5,8.4,5.9,8.4c3.2,0,5.5-2.2,6.3-4.4c0.3-0.7,0.4-1.6,0.4-2.5V24.6h4.8V43.8z"/><path fill="#FFFFFF" d="M67.3,32.8c0-3.1-0.1-5.8-0.2-8.2h4.2l0.2,5.2h0.2c1.2-3.5,4.1-5.8,7.3-5.8c0.5,0,0.9,0.1,1.4,0.2v4.5 c-0.5-0.1-1-0.2-1.6-0.2c-3.4,0-5.8,2.6-6.5,6.2c-0.1,0.7-0.2,1.4-0.2,2.2V51h-4.8V32.8z"/><path fill="#FFFFFF" d="M95.4,51l-9.4-36.8h5l4.4,18.6c1.1,4.6,2.1,9.2,2.7,12.7h0.1c0.6-3.7,1.8-8,3-12.8l4.9-18.5h5l4.5,18.7 c1,4.4,2,8.7,2.6,12.6h0.1c0.8-4,1.8-8.1,3-12.7l4.9-18.5h4.9L120.6,51h-5L111,31.9c-1.1-4.7-1.9-8.3-2.4-12h-0.1 c-0.7,3.7-1.5,7.3-2.8,12L100.4,51H95.4z"/><path fill="#FFFFFF" d="M154.9,37.6c0,9.8-6.8,14-13.2,14c-7.2,0-12.7-5.2-12.7-13.6c0-8.8,5.8-14,13.1-14 C149.8,24,154.9,29.5,154.9,37.6z M133.9,37.9c0,5.8,3.3,10.1,8,10.1c4.6,0,8-4.3,8-10.3c0-4.5-2.2-10.1-7.9-10.1 C136.3,27.6,133.9,32.8,133.9,37.9z"/><path fill="#FFFFFF" d="M158.2,32.8c0-3.1-0.1-5.8-0.2-8.2h4.2l0.2,5.2h0.2c1.2-3.5,4.1-5.8,7.3-5.8c0.5,0,0.9,0.1,1.4,0.2v4.5 c-0.5-0.1-1-0.2-1.6-0.2c-3.4,0-5.8,2.6-6.5,6.2c-0.1,0.7-0.2,1.4-0.2,2.2V51h-4.8V32.8z"/><path fill="#FFFFFF" d="M173.5,12.3h4.8V51h-4.8V12.3z"/><path fill="#FFFFFF" d="M206.5,12.3v31.9c0,2.3,0.1,5,0.2,6.8h-4.3l-0.2-4.6H202c-1.5,2.9-4.7,5.2-9,5.2 c-6.4,0-11.3-5.4-11.3-13.4c-0.1-8.8,5.4-14.2,11.9-14.2c4,0,6.8,1.9,8,4h0.1V12.3H206.5z M201.7,35.4c0-0.6-0.1-1.4-0.2-2 c-0.7-3.1-3.3-5.6-6.9-5.6c-5,0-7.9,4.4-7.9,10.2c0,5.3,2.6,9.8,7.8,9.8c3.2,0,6.2-2.1,7.1-5.7c0.2-0.7,0.2-1.3,0.2-2.1V35.4z"/><path fill="#FFFFFF" d="M42.8,64c0.1,1.6-1.1,2.9-3.1,2.9c-1.7,0-2.9-1.3-2.9-2.9c0-1.7,1.3-3,3-3C41.7,61,42.8,62.3,42.8,64z M37.4,97.8V71.4h4.8v26.4H37.4z"/><path fill="#FFFFFF" d="M47.5,78.6c0-2.7-0.1-5-0.2-7.1h4.3l0.3,4.4h0.1c1.3-2.5,4.4-5,8.8-5c3.7,0,9.4,2.2,9.4,11.2v15.8h-4.8 V82.6c0-4.3-1.6-7.8-6.1-7.8c-3.2,0-5.6,2.2-6.5,4.9c-0.2,0.6-0.3,1.4-0.3,2.2v15.9h-4.8V78.6z"/><path fill="#FFFFFF" d="M84,61.6c2.9-0.4,6.3-0.8,10.1-0.8c6.8,0,11.7,1.6,14.9,4.6c3.3,3,5.2,7.3,5.2,13.2c0,6-1.9,10.9-5.3,14.3 c-3.4,3.4-9.1,5.3-16.3,5.3c-3.4,0-6.2-0.2-8.6-0.4V61.6z M88.8,94.1c1.2,0.2,3,0.3,4.8,0.3c10.2,0,15.7-5.7,15.7-15.6 c0.1-8.7-4.9-14.2-14.9-14.2c-2.5,0-4.3,0.2-5.6,0.5V94.1z"/><path fill="#FFFFFF" d="M132.1,97.8l-0.4-3.3h-0.2c-1.5,2.1-4.3,3.9-8.1,3.9c-5.4,0-8.1-3.8-8.1-7.6c0-6.4,5.7-9.9,15.9-9.8v-0.5 c0-2.2-0.6-6.1-6-6.1c-2.5,0-5,0.8-6.9,2l-1.1-3.2c2.2-1.4,5.4-2.3,8.7-2.3c8.1,0,10.1,5.5,10.1,10.8v9.9c0,2.3,0.1,4.5,0.4,6.3 H132.1z M131.4,84.4c-5.3-0.1-11.2,0.8-11.2,5.9c0,3.1,2.1,4.6,4.5,4.6c3.4,0,5.6-2.2,6.4-4.4c0.2-0.5,0.3-1,0.3-1.5V84.4z"/><path fill="#FFFFFF" d="M146.6,63.9v7.6h6.9v3.7h-6.9v14.2c0,3.3,0.9,5.1,3.6,5.1c1.3,0,2.2-0.2,2.8-0.3l0.2,3.6 c-0.9,0.4-2.4,0.7-4.3,0.7c-2.2,0-4-0.7-5.2-2c-1.4-1.4-1.9-3.8-1.9-6.9V75.1h-4.1v-3.7h4.1v-6.3L146.6,63.9z"/><path fill="#FFFFFF" d="M171.4,97.8l-0.4-3.3h-0.2c-1.5,2.1-4.3,3.9-8.1,3.9c-5.4,0-8.1-3.8-8.1-7.6c0-6.4,5.7-9.9,15.9-9.8v-0.5 c0-2.2-0.6-6.1-6-6.1c-2.5,0-5,0.8-6.9,2l-1.1-3.2c2.2-1.4,5.4-2.3,8.7-2.3c8.1,0,10.1,5.5,10.1,10.8v9.9c0,2.3,0.1,4.5,0.4,6.3 H171.4z M170.7,84.4c-5.3-0.1-11.2,0.8-11.2,5.9c0,3.1,2.1,4.6,4.5,4.6c3.4,0,5.6-2.2,6.4-4.4c0.2-0.5,0.3-1,0.3-1.5V84.4z"/></g></g></a></g><a href="https://ourworldindata.org/grapher/income-shares-by-quintile" target="_blank"><text font-size="25.20" x="15.0" y="35.2" fill="#555"><tspan x="15" y="35.160000000000004">Income shares by quintile, United States</tspan></text></a><text font-size="14.40" x="15.0" y="53.7" fill="#666"><tspan x="15" y="53.72">Percentage share of income or consumption is the share that accrues to subgroups of population by quintiles. For</tspan><tspan x="15" y="69.56">example, in a country with 100 people, if you rank them by income the share of the lowest quintile corresponds to the</tspan><tspan x="15" y="85.4">sum of incomes of the bottom 20 people, as a proportion of total income in that country.</tspan></text></g><g class="StackedArea"><defs><clipPath id="boundsClip-64"><rect x="61.634" y="0" width="820" height="897.8"></rect></clipPath></defs><g class="AxisBoxView"><g class="HorizontalAxis"><text x="61.6" y="556.5" fill="#666" text-anchor="middle" font-size="16.2">1979</text><text x="172.3" y="556.5" fill="#666" text-anchor="middle" font-size="16.2">1985</text><text x="264.4" y="556.5" fill="#666" text-anchor="middle" font-size="16.2">1990</text><text x="356.6" y="556.5" fill="#666" text-anchor="middle" font-size="16.2">1995</text><text x="448.8" y="556.5" fill="#666" text-anchor="middle" font-size="16.2">2000</text><text x="541" y="556.5" fill="#666" text-anchor="middle" font-size="16.2">2005</text><text x="633.2" y="556.5" fill="#666" text-anchor="middle" font-size="16.2">2010</text><text x="688.5" y="556.5" fill="#666" text-anchor="middle" font-size="16.2">2013</text></g><g class="VerticalAxis"><text x="56.63" y="535.3" fill="#666" dominant-baseline="middle" text-anchor="end" font-size="16.2">0%</text><text x="56.63" y="449.8" fill="#666" dominant-baseline="middle" text-anchor="end" font-size="16.2">20%</text><text x="56.63" y="364.2" fill="#666" dominant-baseline="middle" text-anchor="end" font-size="16.2">40%</text><text x="56.63" y="278.7" fill="#666" dominant-baseline="middle" text-anchor="end" font-size="16.2">60%</text><text x="56.63" y="193.1" fill="#666" dominant-baseline="middle" text-anchor="end" font-size="16.2">80%</text><text x="56.63" y="107.6" fill="#666" dominant-baseline="middle" text-anchor="end" font-size="16.2">100%</text></g><g class="AxisGridLines"><line x1="61.63" y1="535.3" x2="688.49" y2="535.3" stroke="#ccc"></line><line x1="61.63" y1="449.8" x2="688.49" y2="449.8" stroke="#ddd" stroke-dasharray="3,2"></line><line x1="61.63" y1="364.2" x2="688.49" y2="364.2" stroke="#ddd" stroke-dasharray="3,2"></line><line x1="61.63" y1="278.7" x2="688.49" y2="278.7" stroke="#ddd" stroke-dasharray="3,2"></line><line x1="61.63" y1="193.1" x2="688.49" y2="193.1" stroke="#ddd" stroke-dasharray="3,2"></line><line x1="61.63" y1="107.6" x2="688.49" y2="107.6" stroke="#ddd" stroke-dasharray="3,2"></line></g></g><g clip-path="url(#boundsClip-64)"><g class="HeightedLegend clickable"><g class="legendMark"><rect x="688.49" y="192.85" width="146.51" height="28.1" fill="#fff" opacity="0"></rect><text font-size="13.50" x="693.5" y="203.7" fill="#34983f"><tspan x="693.49" y="203.65">Income share held</tspan><tspan x="693.49" y="218.5">by highest 20%</tspan></text></g><g class="legendMark"><rect x="688.49" y="340.75" width="146.51" height="28.1" fill="#fff" opacity="0"></rect><text font-size="13.50" x="693.5" y="351.6" fill="#9ecc8a"><tspan x="693.49" y="351.55">Income share held</tspan><tspan x="693.49" y="366.40000000000003">by fourth 20%</tspan></text></g><g class="legendMark"><rect x="688.49" y="422.34999999999997" width="146.51" height="28.1" fill="#fff" opacity="0"></rect><text font-size="13.50" x="693.5" y="433.1" fill="#ffd53e"><tspan x="693.49" y="433.15">Income share held</tspan><tspan x="693.49" y="448">by third 20%</tspan></text></g><g class="legendMark"><rect x="688.49" y="477.34999999999997" width="146.51" height="28.1" fill="#fff" opacity="0"></rect><text font-size="13.50" x="693.5" y="488.1" fill="#ca2628"><tspan x="693.49" y="488.15">Income share held</tspan><tspan x="693.49" y="503">by second 20%</tspan></text></g><g class="legendMark"><rect x="688.49" y="510.34999999999997" width="146.51" height="28.1" fill="#fff" opacity="0"></rect><text font-size="13.50" x="693.5" y="521.1" fill="#3360a9"><tspan x="693.49" y="521.1499999999999">Income share held</tspan><tspan x="693.49" y="535.9999999999999">by lowest 20%</tspan></text></g></g><g class="Areas"><rect x="61.634" y="107.60000000000001" width="626.856" height="427.69999999999993" opacity="0" fill="rgba(255,255,255,0)"></rect><path stroke-linecap="round" d="M61.6 507.9L190.7 511.8L282.9 511.8L338.2 512.6L393.5 512.6L448.8 512.2L522.6 513.1L577.9 513.5L633.2 513.5L688.5 513.5L688.49 535.3L61.634 535.3" fill="#3360a9" fill-opacity="0.7" class="United-States_0-area"></path><path stroke-linecap="round" d="M61.6 456.2L190.7 463.9L282.9 464.7L338.2 467.3L393.5 467.7L448.8 466.8L522.6 467.7L577.9 468.6L633.2 468.6L688.5 469.4L688.5 513.5L633.2 513.5L577.9 513.5L522.6 513.1L448.8 512.2L393.5 512.6L338.2 512.6L282.9 511.8L190.7 511.8L61.6 507.9" fill="#ca2628" fill-opacity="0.7" class="United-States_1-area"></path><path stroke-linecap="round" d="M61.6 383.9L190.7 393.3L282.9 395L338.2 400.1L393.5 401.4L448.8 400L522.6 400.6L577.9 402.4L633.2 401.4L688.5 403.4L688.5 469.4L633.2 468.6L577.9 468.6L522.6 467.7L448.8 466.8L393.5 467.7L338.2 467.3L282.9 464.7L190.7 463.9L61.6 456.2" fill="#ffd53e" fill-opacity="0.7" class="United-States_2-area"></path><path stroke-linecap="round" d="M61.6 283.8L190.7 292.4L282.9 295.4L338.2 303.1L393.5 305.6L448.8 304.5L522.6 304.3L577.9 306.3L633.2 303.5L688.5 306.3L688.5 403.4L633.2 401.4L577.9 402.4L522.6 400.6L448.8 400L393.5 401.4L338.2 400.1L282.9 395L190.7 393.3L61.6 383.9" fill="#9ecc8a" fill-opacity="0.7" class="United-States_3-area"></path><path stroke-linecap="round" d="M61.6 107.6L190.7 107.6L282.9 107.6L338.2 107.6L393.5 107.6L448.8 107.6L522.6 107.6L577.9 107.6L633.2 107.6L688.5 107.6L688.5 306.3L633.2 303.5L577.9 306.3L522.6 304.3L448.8 304.5L393.5 305.6L338.2 303.1L282.9 295.4L190.7 292.4L61.6 283.8" fill="#34983f" fill-opacity="0.7" class="United-States_4-area"></path><path stroke-linecap="round" d="M61.6 507.9L190.7 511.8L282.9 511.8L338.2 512.6L393.5 512.6L448.8 512.2L522.6 513.1L577.9 513.5L633.2 513.5L688.5 513.5" stroke="rgb(43, 80, 141)" stroke-opacity="0.7" stroke-width="0.5" fill="none" class="United-States_0-border"></path><path stroke-linecap="round" d="M61.6 456.2L190.7 463.9L282.9 464.7L338.2 467.3L393.5 467.7L448.8 466.8L522.6 467.7L577.9 468.6L633.2 468.6L688.5 469.4" stroke="rgb(169, 32, 33)" stroke-opacity="0.7" stroke-width="0.5" fill="none" class="United-States_1-border"></path><path stroke-linecap="round" d="M61.6 383.9L190.7 393.3L282.9 395L338.2 400.1L393.5 401.4L448.8 400L522.6 400.6L577.9 402.4L633.2 401.4L688.5 403.4" stroke="rgb(213, 178, 52)" stroke-opacity="0.7" stroke-width="0.5" fill="none" class="United-States_2-border"></path><path stroke-linecap="round" d="M61.6 283.8L190.7 292.4L282.9 295.4L338.2 303.1L393.5 305.6L448.8 304.5L522.6 304.3L577.9 306.3L633.2 303.5L688.5 306.3" stroke="rgb(132, 171, 115)" stroke-opacity="0.7" stroke-width="0.5" fill="none" class="United-States_3-border"></path><path stroke-linecap="round" d="M61.6 107.6L190.7 107.6L282.9 107.6L338.2 107.6L393.5 107.6L448.8 107.6L522.6 107.6L577.9 107.6L633.2 107.6L688.5 107.6" stroke="rgb(44, 127, 53)" stroke-opacity="0.7" stroke-width="0.5" fill="none" class="United-States_4-border"></path></g></g></g><g style="fill: #777;" class="SourcesFooter"><g style="fill: #777;" class="clickable"><text font-size="12.60" x="15.0" y="581.6"><tspan x="15" y="581.58">Source: World Bank Poverty and Equity database</tspan></text></g><text font-size="12.60" x="543.7" y="581.6"><tspan x="543.688" y="581.58"><a target='_blank' style='fill: #777;' href='https://ourworldindata.org/income-inequality/'>OurWorldInData.org/income-inequality/</a> • <a style="fill: #777;" class="cclogo" href="http://creativecommons.org/licenses/by-sa/4.0/deed.en_US" target="_blank">CC BY-SA</a></tspan></text></g></g></svg>
